src/img/img_customer-active.svg

<svg width="18" height="21" viewBox="0 0 26 26" fill="none" xmlns="http://www.w3.org/2000/svg">
<path d="M8.75 10.5C11.4844 10.5 13.75 8.27344 13.75 5.5C13.75 2.76562 11.4844 0.5 8.75 0.5C5.97656 0.5 3.75 2.76562 3.75 5.5C3.75 8.27344 5.97656 10.5 8.75 10.5ZM12.4609 11.7891L10.625 19.25L9.375 13.9375L10.625 11.75H6.875L8.125 13.9375L6.875 19.25L5 11.7891C2.1875 11.9063 0 14.2109 0 17.0234V18.625C0 19.6797 0.820312 20.5 1.875 20.5H15.625C16.6406 20.5 17.5 19.6797 17.5 18.625V17.0234C17.5 14.2109 15.2734 11.9063 12.4609 11.7891Z" fill="#2AA7FF"/>
</svg>

<svg width="18" height="21" viewBox="0 0 26 26" fill="none" xmlns="http://www.w3.org/2000/svg"><path d="M8.75 10.5a5.01 5.01 0 000-10 5.01 5.01 0 000 10zm3.71 1.29l-1.84 7.46-1.24-5.31 1.24-2.19H6.88l1.25 2.19-1.26 5.31L5 11.79c-2.81.12-5 2.42-5 5.23v1.6c0 1.06.82 1.88 1.88 1.88h13.75c1.01 0 1.87-.82 1.87-1.88v-1.6a5.25 5.25 0 00-5.04-5.23z" fill="#2AA7FF"/></svg>
